frontend/public/svg/interface/paper-clip-2.svg

<svg width="139" height="151" viewBox="0 0 139 151" fill="none" xmlns="http://www.w3.org/2000/svg">
<g clip-path="url(#clip0)">
<path d="M55.2688 82.0518C68.181 69.2298 82.203 57.0536 94.3333 46.645C99.8481 41.8887 104.899 36.6207 109.419 30.9112C109.827 30.4016 110.358 29.7219 110.851 28.9917C111.366 28.3446 111.628 27.5331 111.59 26.7073C111.552 25.8814 111.216 25.0975 110.643 24.5008C110.138 23.9127 109.437 23.5275 108.669 23.4161C107.902 23.3047 107.12 23.4748 106.468 23.8949C105.163 24.5968 103.923 25.4139 102.764 26.3362C99.0273 29.3855 95.3527 32.4921 92.2516 35.1293C75.4137 49.4109 59.3458 64.5755 44.1151 80.5593C41.5166 83.293 39.1549 86.3188 36.8708 89.2431C35.8449 90.5572 34.7837 91.9156 33.7181 93.2264C30.5363 97.1387 29.2461 101.913 29.7733 107.824C30.2941 113.66 33.2372 118.958 37.6441 121.996C41.7157 124.804 46.7402 125.48 52.1743 123.949C56.5759 122.766 60.6985 120.721 64.3026 117.931C65.3589 117.094 66.4202 116.259 67.4858 115.427C72.4981 111.496 77.6867 107.433 82.2466 102.865C94.0938 91.0057 105.908 78.718 117.332 66.8405C120.457 63.5915 123.583 60.3443 126.71 57.0991C130.194 53.5298 133.042 49.3902 135.13 44.8597C138.859 36.6452 139.638 28.965 137.512 21.3799C135.29 13.4498 130.007 6.65283 123.379 3.19804C117.065 -0.0953215 109.62 -0.39858 101.857 2.31486C95.1782 4.69165 88.8836 8.03481 83.1749 12.2378C70.79 21.1826 61.2934 29.0542 53.2874 37.0097C40.3193 49.8968 27.2164 63.0825 14.5458 75.8328L12.0015 78.3933C7.19815 83.2266 4.36334 88.1972 3.33355 93.5902C2.75551 96.62 2.34792 99.7259 1.95475 102.729C1.77704 104.083 1.6001 105.437 1.40742 106.787C1.38673 106.932 1.41431 107.081 1.48593 107.208C1.55755 107.336 1.66917 107.438 1.80377 107.496C1.80377 107.675 1.79843 107.855 1.79583 108.035C1.78216 108.887 1.76839 109.769 1.82697 110.646C1.87319 111.343 1.98776 112.03 2.09777 112.694C2.16873 113.123 2.24053 113.552 2.29325 113.984C4.00263 128.001 11.5639 139.035 24.7677 146.781C29.0731 149.281 33.9747 150.569 38.953 150.509C40.1537 150.507 41.3536 150.442 42.5475 150.314C50.1766 149.515 56.9641 146.464 62.5967 143.585C72.599 138.537 81.9589 132.307 90.4765 125.029C99.3697 117.343 108.19 109.278 116.719 101.483C118.896 99.4929 121.074 97.5045 123.253 95.5168C126.55 92.5137 129.646 89.3896 133.062 85.9094C134.145 84.8361 135.034 83.5832 135.687 82.2054C136.79 79.7562 136.533 77.5003 134.961 75.8536C133.123 73.9251 130.843 73.4324 128.708 74.5044C126.845 75.3479 125.103 76.4387 123.529 77.7463C114.881 85.5833 106.379 93.4744 99.2024 100.16C90.9445 107.852 82.7921 115.293 73.8625 121.769C66.124 127.38 57.6156 133.107 47.8332 136.981C38.1602 140.811 29.8378 138.957 22.3943 131.318C16.5599 125.33 13.427 118.587 12.8177 110.715C11.9064 98.898 14.2737 91.1736 20.7447 84.8863C28.5866 77.2673 36.4268 69.3892 44.009 61.7704C48.7075 57.0497 53.5653 52.1676 58.3738 47.3974C66.3551 39.4803 75.4091 31.8385 86.8677 23.3487C91.6924 19.7735 98.2136 15.3483 105.875 12.8418C110.152 11.4438 113.448 11.3215 116.565 12.4436C123.326 14.8798 128.808 24.2202 127.847 31.6621C127.027 38.0159 124.273 43.6824 119.428 48.9863C116.447 52.2503 113.363 55.4506 110.475 58.4238C107.481 61.5071 104.491 64.5962 101.506 67.6911C93.338 76.1458 84.892 84.8895 76.4031 93.3C71.7306 97.9302 66.5563 102.233 61.5532 106.395C60.5686 107.213 59.5847 108.034 58.6017 108.854C55.6834 111.32 52.2855 113.153 48.6228 114.238C44.9371 115.322 42.2209 114.312 40.5473 111.237C38.3679 107.23 38.297 103.605 40.3299 100.157C44.4152 93.2238 49.9226 87.3582 55.2688 82.0518Z" fill="black"/>
</g>
<defs>
<clipPath id="clip0">
<rect width="138" height="151" fill="white" transform="translate(0.777344)"/>
</clipPath>
</defs>
</svg>

<svg xmlns="http://www.w3.org/2000/svg" width="139" height="151" fill="none" viewBox="0 0 139 151"><g clip-path="url(#a)"><path fill="#000" d="M55.269 82.052C68.18 69.23 82.203 57.054 94.333 46.645a115 115 0 0 0 15.086-15.734c.408-.51.939-1.19 1.432-1.92a3.415 3.415 0 0 0-.208-4.49 3.21 3.21 0 0 0-4.175-.606 25 25 0 0 0-3.704 2.441c-3.737 3.05-7.411 6.156-10.512 8.793a624 624 0 0 0-48.137 45.43c-2.598 2.734-4.96 5.76-7.244 8.684a259 259 0 0 1-3.153 3.983c-3.182 3.913-4.472 8.687-3.945 14.598.521 5.836 3.464 11.134 7.871 14.172 4.072 2.808 9.096 3.484 14.53 1.953a34.4 34.4 0 0 0 12.129-6.018 565 565 0 0 1 3.183-2.504c5.012-3.931 10.2-7.994 14.76-12.562 11.848-11.86 23.662-24.147 35.086-36.024q4.688-4.875 9.378-9.742a43.7 43.7 0 0 0 8.42-12.24c3.729-8.214 4.508-15.894 2.382-23.48-2.222-7.93-7.505-14.726-14.133-18.181-6.314-3.293-13.759-3.597-21.522-.883a72.5 72.5 0 0 0-18.682 9.923C70.79 21.183 61.293 29.054 53.287 37.01 40.32 49.897 27.217 63.083 14.546 75.833l-2.544 2.56c-4.804 4.834-7.639 9.804-8.668 15.197-.578 3.03-.986 6.136-1.38 9.139-.177 1.354-.354 2.708-.547 4.058a.67.67 0 0 0 .397.709c0 .179-.006.359-.008.539-.014.852-.028 1.734.031 2.611.046.697.16 1.384.27 2.048.072.429.144.858.196 1.29 1.71 14.017 9.27 25.051 22.475 32.797a27.6 27.6 0 0 0 14.185 3.728q1.802-.003 3.594-.195c7.63-.799 14.417-3.85 20.05-6.729a140 140 0 0 0 27.88-18.556c8.893-7.686 17.713-15.751 26.242-23.546q3.266-2.985 6.534-5.966c3.297-3.003 6.393-6.127 9.809-9.608a13.1 13.1 0 0 0 2.625-3.704c1.103-2.449.846-4.705-.726-6.351-1.838-1.929-4.118-2.422-6.253-1.35a23 23 0 0 0-5.179 3.242c-8.648 7.837-17.15 15.728-24.327 22.414-8.257 7.692-16.41 15.133-25.34 21.609-7.738 5.611-16.246 11.338-26.029 15.212-9.673 3.83-17.995 1.976-25.439-5.663-5.834-5.988-8.967-12.731-9.576-20.603-.912-11.817 1.456-19.541 7.927-25.829 7.842-7.619 15.682-15.497 23.264-23.116 4.699-4.72 9.556-9.602 14.365-14.373C66.355 39.48 75.409 31.84 86.868 23.35c4.824-3.576 11.346-8 19.007-10.507 4.277-1.398 7.573-1.52 10.69-.398 6.761 2.436 12.243 11.776 11.282 19.218-.82 6.354-3.574 12.02-8.419 17.324-2.981 3.264-6.065 6.465-8.953 9.438a3815 3815 0 0 0-8.969 9.267C93.338 76.146 84.892 84.89 76.403 93.3c-4.672 4.63-9.847 8.933-14.85 13.095q-1.476 1.228-2.951 2.459a27.6 27.6 0 0 1-9.98 5.384c-3.685 1.084-6.401.074-8.075-3.001-2.18-4.007-2.25-7.632-.217-11.08 4.085-6.933 9.593-12.799 14.939-18.105"/></g><defs><clipPath id="a"><path fill="#fff" d="M.777 0h138v151h-138z"/></clipPath></defs></svg>
